X:1
T:Work for Us All
T:Work for Us All
T:Charles Edward Prior
T:Frances Jane (Fanny) Crosby, 1894
T:Public Domain Courtesy of the Cyber Hymnal™
T:Public Domain Courtesy of the Cyber Hymnal™
C:Charles Edward Prior
Z:Public Domain
Z:Courtesy of the Cyber Hymnal™
%%score ( 1 2 ) ( 3 4 )
L:1/8
Q:1/4=103
M:6/8
K:Eb
V:1 treble 
V:2 treble 
V:3 bass 
V:4 bass 
V:1
 [EB][Ec][EB] [EG][DF][EG] | [FA] [DF]4 z | [FA][GB][FA] [DF][CE][DF] | [EG]3- [EG]2 z | %4
w: 1.~Out where the reap- ers are|toil- ing,|Out where they ear- nest- ly|call, *|
w: 2.~Out where the glean- ers are|toil- ing,|Pa- tient- ly, cheer- ful- ly|still, *|
w: 3.~Out where the sheaves they are|bind- ing,|Sheaves for the gar- ner a-|bove, *|
 [GB][Ac][GB] [EG][DF][EG] | [FA] [DF]4 z | [EF][E=A][EG] [EF][EG][EA] | [DB]3- [DB]2 z | %8
w: Let us a- way in the|morn- ing,|There is a work for us|all; *|
w: If we are will- ing to|la- bor,|Here is a place we can|fill; *|
w: Go in the name of the|Mas- ter,|Go in the spir- it of|love; *|
 [Dc][DF][DF] [DA][DG][DF] | [EG] [GB]4 z | [FB][FB][FB] [Fc][Fd][Fe] | ([Fd-]3 [Ad]2) z | %12
w: Lift- ing the vines that are|droop- ing,|Try- ing their bloom to re-|new, *|
w: Speak- ing a word to the|wear- y,|Help- ing the weak ones a-|long, *|
w: Hark! He is ten- der- ly|say- ing,|“Work in My vine- yard to-|day”; *|
 [Ge][Bd][Ac] [GB][FA][EG] | (F2 [=EG]) [FA]3 | [EG][B,F][B,E] [DF]!fermata![DB][B,D] | %15
w: Bath- ing their leaves in a|fount- * ain|Pur- er and sweet- er than|
w: Shedd- ing bright sun- shine a-|round * them,|Cheer- ing their hearts with a|
w: Haste, for the sum- mer is|wan- * ing,|Har- vest is pass- ing a-|
 [B,E]3- [B,E]2 z ||"^Refrain" [DF]3 [DB]2 [FA] | [EG]EE [EG] [EB]2 | [Ec]3 [EB]2 [EG] | %19
w: dew. *|Out where the|reap- ers are toil- ing,|Out where they|
w: song. *||||
w: way. *||||
 [DF][DB][DB] !fermata!B3 | [EB][EG][FA] [GB]2 [Ge] | [Ee]>[Ee][Ee] [Ed] [Ec]2 | %22
w: ear- nest- ly call,|Let us a- way, a-|way in the morn- ing,|
w: |||
w: |||
 [EB]>[EB][EB] [DF][DG][DF] | E3- E2 z |] %24
w: There is a work for us|all. *|
w: ||
w: ||
V:2
 x6 | x6 | x6 | x6 | x6 | x6 | x6 | x6 | x6 | x6 | x6 | x6 | x6 | F2 x4 | x6 | x6 || x6 | x EE x3 | %18
 x6 | x3 (DEF) | x6 | x6 | x6 | E3- E2 x |] %24
V:3
 [E,G,][E,A,][E,G,] [E,B,][E,B,][E,B,] | [B,,B,] [B,,B,]4 z | %2
w: ~ ~ ~ ~ ~ ~|~ ~|
 [B,,B,][B,,B,][B,,B,] [B,,B,][B,,B,][B,,B,] | [E,B,]3- [E,B,]2 z | %4
w: ~ ~ ~ ~ ~ ~|~ *|
 [E,E][E,E][E,E] [E,B,][E,B,][E,B,] | [B,,B,] [B,,B,]4 z | [F,=A,][F,C][F,B,] [F,A,][F,B,][F,C] | %7
w: ~ ~ ~ ~ ~ ~|~ ~|~ ~ ~ ~ ~ ~|
 [B,,B,]3- [B,,B,]2 z | [B,,A,][B,,A,][B,,A,] [B,,F,][B,,B,][B,,B,] | [E,B,] [E,B,]4 z | %10
w: ~ *|~ ~ ~ ~ ~ ~|~ ~|
 [D,B,][D,B,][D,B,] [F,=A,][F,B,][F,C] | B,3- B,2 z | [E,B,][E,E][E,E] [E,E][E,B,][E,B,] | %13
w: ~ ~ ~ ~ ~ ~|~ *|~ ~ ~ ~ ~ ~|
 C3 [F,C]3 | [B,,B,][B,,A,][B,,G,] [B,,A,]!fermata![B,,F,][B,,A,] | [E,G,]3- [E,G,]2 z || %16
w: ~ ~|~ ~ ~ ~ ~ ~|~ *|
 [B,,B,][B,,B,][B,,B,] [B,,F,][B,,F,][B,,B,] | [E,B,][E,G,][E,G,] [E,B,] [E,G,]2 | %18
w: Out where the reap- ers, the|reap- ers are toil- ing,|
 A,A,[A,,A,] [E,G,][E,G,][E,B,] | [B,,B,][B,,F,][B,,F,] (!fermata!F,G,A,) | %20
w: Out where they ear- nest- ly,|ear- nest- ly call, * *|
 [E,G,][E,B,][E,B,] [E,E]2 [E,B,] | [E,G,]>[F,A,][G,B,] [A,B,] A,2 | %22
w: ||
 [B,,G,]>[B,,G,][B,,G,] [B,,A,][B,,B,][B,,A,] | [E,G,]3- [E,G,]2 z |] %24
w: ||
V:4
 x6 | x6 | x6 | x6 | x6 | x6 | x6 | x6 | x6 | x6 | x6 | B,3- B,2 x | x6 | (A,2 G,) x3 | x6 | x6 || %16
 x6 | x6 | A,A, x4 | x3 B,,3 | x6 | x4 A,2 | x6 | x6 |] %24

